src/assets/icons/pirates.svg

<svg xmlns="http://www.w3.org/2000/svg" height="48" width="48"><path d="m4.8 27.85 16.7-24.3v24.3Zm20.3 0q1.2-4 1.525-6.925.325-2.925.325-6.425 0-3.6-.4-7.025Q26.15 4.05 24.9.35q2.95 1.25 6.025 3.85t5.65 6.2q2.575 3.6 4.275 8.05 1.7 4.45 1.8 9.4ZM18 38.15q-1.65 0-3.2-.825Q13.25 36.5 12 35.2q-.95.9-2.175 1.625Q8.6 37.55 7.55 37.85q-1.3-.95-2.5-2.875T3.45 31H44.6q-.45 2.05-1.65 3.975-1.2 1.925-2.5 2.875-1.05-.3-2.275-1.025Q36.95 36.1 36 35.2q-1.25 1.3-2.8 2.125-1.55.825-3.2.825-1.65 0-3.2-.825Q25.25 36.5 24 35.2q-1.25 1.3-2.8 2.125-1.55.825-3.2.825Zm-14.55 9V43H6q1.5 0 2.975-.575T12 40.4q1.55 1.45 3.05 2.025Q16.55 43 18 43q1.5 0 3-.575t3-2.025q1.55 1.45 3.05 2.025Q28.55 43 30 43q1.5 0 3-.55t3-2q1.5 1.45 3 2t3 .55h2.55v4.15H42q-1.45 0-2.975-.425Q37.5 46.3 36 45.2q-1.5 1.1-3.025 1.525-1.525.425-2.975.425-1.45 0-2.975-.425Q25.5 46.3 24 45.2q-1.5 1.1-3.025 1.525-1.525.425-2.975.425-1.45 0-2.975-.425Q13.5 46.3 12 45.2q-1.5 1.1-3.025 1.525Q7.45 47.15 6 47.15Z"/></svg>

<?xml version="1.0" encoding="UTF-8" standalone="no"?>
<svg
   height="48"
   width="48"
   version="1.1"
   id="svg143"
   sodipodi:docname="pirates.svg"
   inkscape:version="1.2.1 (9c6d41e410, 2022-07-14)"
   xmlns:inkscape="http://www.inkscape.org/namespaces/inkscape"
   xmlns:sodipodi="http://sodipodi.sourceforge.net/DTD/sodipodi-0.dtd"
   xmlns="http://www.w3.org/2000/svg"
   xmlns:svg="http://www.w3.org/2000/svg">
  <defs
     id="defs147" />
  <sodipodi:namedview
     id="namedview145"
     pagecolor="#505050"
     bordercolor="#eeeeee"
     borderopacity="1"
     inkscape:showpageshadow="0"
     inkscape:pageopacity="0"
     inkscape:pagecheckerboard="0"
     inkscape:deskcolor="#505050"
     showgrid="false"
     inkscape:zoom="4.9166667"
     inkscape:cx="24"
     inkscape:cy="24.101695"
     inkscape:window-width="1500"
     inkscape:window-height="930"
     inkscape:window-x="-6"
     inkscape:window-y="-6"
     inkscape:window-maximized="1"
     inkscape:current-layer="svg143" />
  <path
     id="path141"
     d="M 4.8,27.85 21.5,3.55 v 24.3 z m 20.3,0 q 1.2,-4 1.525,-6.925 Q 26.95,18 26.95,14.5 q 0,-3.6 -0.4,-7.025 -0.4,-3.425 -1.65,-7.125 2.95,1.25 6.025,3.85 3.075,2.6 5.65,6.2 2.575,3.6 4.275,8.05 1.7,4.45 1.8,9.4 z M 18,38.15 q -1.65,0 -3.2,-0.825 Q 13.25,36.5 12,35.2 11.05,36.1 9.825,36.825 8.6,37.55 7.55,37.85 6.25,36.9 5.05,34.975 3.85,33.05 3.45,31 H 44.6 q -0.45,2.05 -1.65,3.975 -1.2,1.925 -2.5,2.875 Q 39.4,37.55 38.175,36.825 36.95,36.1 36,35.2 34.75,36.5 33.2,37.325 31.65,38.15 30,38.15 28.35,38.15 26.8,37.325 25.25,36.5 24,35.2 22.75,36.5 21.2,37.325 19.65,38.15 18,38.15 Z m -14.55,9 V 43 H 6 Q 7.5,43 8.975,42.425 10.45,41.85 12,40.4 13.55,41.85 15.05,42.425 16.55,43 18,43 q 1.5,0 3,-0.575 1.5,-0.575 3,-2.025 1.55,1.45 3.05,2.025 Q 28.55,43 30,43 q 1.5,0 3,-0.55 1.5,-0.55 3,-2 1.5,1.45 3,2 1.5,0.55 3,0.55 h 2.55 v 4.15 H 42 q -1.45,0 -2.975,-0.425 Q 37.5,46.3 36,45.2 34.5,46.3 32.975,46.725 31.45,47.15 30,47.15 28.55,47.15 27.025,46.725 25.5,46.3 24,45.2 22.5,46.3 20.975,46.725 19.45,47.15 18,47.15 16.55,47.15 15.025,46.725 13.5,46.3 12,45.2 10.5,46.3 8.975,46.725 7.45,47.15 6,47.15 Z" />
</svg>
